X: 35975
T: Saratoga
R: hornpipe
M: 4/4
K: Dmajor
|:FG|ABAG FEFA|BABc d2cd|BcdB AFDE|FEEF E2FG|
ABAG FEFA|BABc d2de|faag egfe|d2dc d2:|
|:AB|dcde fefg|abag f2 gf|efed cB AB|dcde f2AB|
dcde fefg|abag f2 gf|efed cB AB|d2dc d2:|

